static/assets/template/assets/img/icons/essential/detailed/Jumping_Rope.svg

<svg height="144" viewBox="0 0 150 144" width="150" xmlns="http://www.w3.org/2000/svg"><g fill="none" fill-rule="evenodd" transform="translate(1 2)"><path d="m136.9 139.5c-4.9 0-8.9-4-8.9-8.9v-57.3h17.8v57.3c0 4.9-4 8.9-8.9 8.9z" fill-rule="nonzero"/><path d="m10.2 139.5c-4.9 0-8.9-4-8.9-8.9v-57.3h17.8v57.3c0 4.9-4 8.9-8.9 8.9z" fill-rule="nonzero"/><path d="m145.8 82.7v50.1c0 3.7-3 6.7-6.7 6.7s-6.7-3-6.7-6.7v-42c0-4.5 3.6-8.1 8.1-8.1z" fill="#bad8ff" fill-rule="nonzero"/><path d="m144.5 82.7v38.5c0 3.7-3 6.7-6.7 6.7-2.2 0-4.2-1.1-5.4-2.8v-34.3c0-4.5 3.6-8.1 8.1-8.1z" fill-rule="nonzero"/><path d="m19 82.7v50.3c0 3.6-2.9 6.5-6.5 6.5s-6.5-2.9-6.5-6.5v-42.1c0-4.5 3.7-8.1 8.1-8.1h4.9z" fill="#bad8ff" fill-rule="nonzero"/><path d="m17.8 82.8v38.2c0 3.5-2.5 6.5-6 6.8-2.4.2-4.5-.9-5.8-2.6v-34.4c0-4.5 3.7-8.1 8.1-8.1l3.7.1c-.1-.1 0-.1 0 0z" fill-rule="nonzero"/><g stroke-linecap="round" stroke-linejoin="round" stroke-width="3"><path d="m53 92.5c4.1 7.2 11.8 12 20.7 12 13.1 0 23.8-10.6 23.8-23.8v-57.7-2.7c0-11 8.9-19.9 19.9-19.9s19.9 8.9 19.9 19.9v51.5"/><path d="m49.9 79v.7"/><path d="m10.2 71.9v-51.5c0-11 8.9-19.9 19.9-19.9s19.9 8.9 19.9 19.9v1.8 50.5"/><path d="m127.4 73.5h19.2"/><path d="m128 77.4v-4h17.8v57.3c0 4.9-4 8.9-8.9 8.9s-8.9-4-8.9-8.9v-40.6"/><path d="m.6 73.5h19.3"/><path d="m1.3 101.7v-28.4h17.8v57.3c0 4.9-4 8.9-8.9 8.9s-8.9-4-8.9-8.9v-7.4"/><path d="m1.3 116.8v-.4"/></g></g></svg>

<?xml version="1.0" encoding="UTF-8"?>
<svg width="150px" height="144px" viewBox="0 0 150 144" version="1.1" xmlns="http://www.w3.org/2000/svg" xmlns:xlink="http://www.w3.org/1999/xlink">
    <!-- Generator: Sketch 51.2 (57519) - http://www.bohemiancoding.com/sketch -->
    <title>Jumping_Rope</title>
    <desc>Created with Sketch.</desc>
    <defs></defs>
    <g id="Page-1" stroke="none" stroke-width="1" fill="none" fill-rule="evenodd">
        <g id="Jumping_Rope" transform="translate(1.000000, 2.000000)">
            <path d="M136.9,139.5 C132,139.5 128,135.5 128,130.6 L128,73.3 L145.8,73.3 L145.8,130.6 C145.8,135.5 141.8,139.5 136.9,139.5 Z" id="Shape" class="fill-neutral" fill-rule="nonzero"></path>
            <path d="M10.2,139.5 C5.3,139.5 1.3,135.5 1.3,130.6 L1.3,73.3 L19.1,73.3 L19.1,130.6 C19.1,135.5 15.1,139.5 10.2,139.5 Z" id="Shape" class="fill-neutral" fill-rule="nonzero"></path>
            <path d="M145.8,82.7 L145.8,132.8 C145.8,136.5 142.8,139.5 139.1,139.5 C135.4,139.5 132.4,136.5 132.4,132.8 L132.4,90.8 C132.4,86.3 136,82.7 140.5,82.7 L145.8,82.7 Z" id="Shape" fill="#BAD8FF" fill-rule="nonzero"></path>
            <path d="M144.5,82.7 L144.5,121.2 C144.5,124.9 141.5,127.9 137.8,127.9 C135.6,127.9 133.6,126.8 132.4,125.1 L132.4,90.8 C132.4,86.3 136,82.7 140.5,82.7 L144.5,82.7 Z" id="Shape" class="fill-primary-100" fill-rule="nonzero"></path>
            <path d="M19,82.7 L19,133 C19,136.6 16.1,139.5 12.5,139.5 C8.9,139.5 6,136.6 6,133 L6,90.9 C6,86.4 9.7,82.8 14.1,82.8 L19,82.8 L19,82.7 Z" id="Shape" fill="#BAD8FF" fill-rule="nonzero"></path>
            <path d="M17.8,82.8 L17.8,121 C17.8,124.5 15.3,127.5 11.8,127.8 C9.4,128 7.3,126.9 6,125.2 C6,125.2 6,125.2 6,125.2 L6,90.8 C6,86.3 9.7,82.7 14.1,82.7 L17.8,82.8 C17.7,82.7 17.8,82.7 17.8,82.8 Z" id="Shape" class="fill-primary-100" fill-rule="nonzero"></path>
            <path d="M53,92.5 C57.1,99.7 64.8,104.5 73.7,104.5 C86.8,104.5 97.5,93.9 97.5,80.7 L97.5,23 L97.5,20.3 C97.5,9.3 106.4,0.4 117.4,0.4 C128.4,0.4 137.3,9.3 137.3,20.3 L137.3,71.8" id="Shape" class="stroke-primary" stroke-width="3" stroke-linecap="round" stroke-linejoin="round"></path>
            <path d="M49.9,79 L49.9,79.7" id="Shape" class="stroke-primary" stroke-width="3" stroke-linecap="round" stroke-linejoin="round"></path>
            <path d="M10.2,71.9 L10.2,20.4 C10.2,9.4 19.1,0.5 30.1,0.5 C41.1,0.5 50,9.4 50,20.4 L50,22.2 L50,72.7" id="Shape" class="stroke-primary" stroke-width="3" stroke-linecap="round" stroke-linejoin="round"></path>
            <path d="M127.4,73.5 L146.6,73.5" id="Shape" class="stroke-primary" stroke-width="3" stroke-linecap="round" stroke-linejoin="round"></path>
            <path d="M128,77.4 L128,73.4 L145.8,73.4 L145.8,130.7 C145.8,135.6 141.8,139.6 136.9,139.6 C132,139.6 128,135.6 128,130.7 L128,90.1" id="Shape" class="stroke-primary" stroke-width="3" stroke-linecap="round" stroke-linejoin="round"></path>
            <path d="M0.6,73.5 L19.9,73.5" id="Shape" class="stroke-primary" stroke-width="3" stroke-linecap="round" stroke-linejoin="round"></path>
            <path d="M1.3,101.7 L1.3,73.3 L19.1,73.3 L19.1,130.6 C19.1,135.5 15.1,139.5 10.2,139.5 C5.3,139.5 1.3,135.5 1.3,130.6 L1.3,123.2" id="Shape" class="stroke-primary" stroke-width="3" stroke-linecap="round" stroke-linejoin="round"></path>
            <path d="M1.3,116.8 L1.3,116.4" id="Shape" class="stroke-primary" stroke-width="3" stroke-linecap="round" stroke-linejoin="round"></path>
        </g>
    </g>
</svg>
